X:1
T:Lesson 3 - Key Signatures - Exercise 4
M:C
K:A
L:1/4
vA A B B|c2 d2|e e f f|g2 a2|a a g g|f2 e2|d d c c|B2 A2|]
